**kern	**kern
*staff2	*staff1
*clefF4	*clefG2
*k[f#c#g#]	*k[f#c#g#]
*M2/4	*M2/4
*A:	*A:
=-	=-
16F#	8r
16G#JJ	.
=209	=209
16ALL	4r
16B	.
16c#	.
16dJJ	.
8eL	16r
.	(16cc#LL
8eJ	16b#
.	16cc#JJ
=210	=210
(4d	16bLL
.	16a
.	16g#
.	16f#JJ
8B)	16e'LL)
.	16e
8r	16f#
.	16g#JJ
*clefG2	*
=211	=211
4r	16aLL
.	16b
.	16cc#
.	16ddJJ
16r	8eeL
(16cc#LL	.
16b#	8eeJ
16cc#JJ	.
=212	=212
16bLL	(4dd
16a	.
16g#	.
16f#JJ	.
16eLL)	8b)
16A	.
16B	8r
16c#JJ	.
=213	=213
16dLL	4r
16e	.
16f#	.
16g#JJ	.
16aLL	16r
16c#	16eeeLL
16d	16ddd
16eJJ	16ccc#JJ
=214	=214
16f#LL	16bbLL
16g#	16aa
16a	16gg#
16bJJ	16ff#JJ
8cc#	16eeLL
.	16aa
8r	16gg#
.	16ff#JJ
*clefF4	*
=215	=215
4r	16eeLL
.	16dd
.	16cc#
.	16bJJ
8r	8aL
8E 8d	8g#J
=216	=216
8AL	4c# 4a
8EJ	.
8AA	8r
=	=
*-	*-
